!!!OTL: Der schwatzhafte Junggeselle Es spielen drei Kaufleut auf einen Tisch.
!!!ARE: Europa, Osteuropa, Ungarn, Kom. Tolnau, Kimling (Dunakoemloed)
!!!YOR: 6, S. 312
!!    1938 gedruckt
!!!SCT: Q1139O
!!!YEM: Copyright 1995, estate of Helmut Schaffrath.
**kern
*ICvox
*Ivox
*M4/4
*k[b-e-]
*g:
{4d
=1
2g
4a
4a
=2
4b-
4dd
4cc
4a
=3
2b-
2a
=4
2g
4r}
{4d
=5
4g
4g
4a
4a
=6
4b-
4dd
4cc
4a
=7
2b-
4a
4a
=8
2g
4r}
{4a
=9
2dd
4dd
4dd
=10
4dd
2cc
4a
=11
4g
4a
4b-
4dd
=12
2a
4r}
{8d
8d
=13
4g
4g
4a
4a
=14
4b-
4dd
4cc
4a
=15
2b-
2a
=16
2g
4r}
==
!!!AGN: ???
!! Melodievergleich zu Q0139M, anderes Lied.
!!!ONB: ESAC (Essen Associative Code) Database: BALLADE
!!!AMT: simple quadruple
!!!AIN: vox
!!!EED: Helmut Schaffrath
!!!EEV: 1.0
*-
